trabajos/trabajos1/Parcial/Somos/imagenes/DSC_0003.xmp
<x:xmpmeta xmlns:x="adobe:ns:meta/" x:xmptk="Adobe XMP Core 5.6-c140 79.160451, 2017/05/06-01:08:21        ">
 <rdf:RDF xmlns:rdf="http://www.w3.org/1999/02/22-rdf-syntax-ns#">
  <rdf:Description rdf:about=""
    xmlns:xmp="http://ns.adobe.com/xap/1.0/"
    xmlns:tiff="http://ns.adobe.com/tiff/1.0/"
    xmlns:exif="http://ns.adobe.com/exif/1.0/"
    xmlns:aux="http://ns.adobe.com/exif/1.0/aux/"
    xmlns:photoshop="http://ns.adobe.com/photoshop/1.0/"
    xmlns:xmpMM="http://ns.adobe.com/xap/1.0/mm/"
    xmlns:stEvt="http://ns.adobe.com/xap/1.0/sType/ResourceEvent#"
    xmlns:dc="http://purl.org/dc/elements/1.1/"
    xmlns:crd="http://ns.adobe.com/camera-raw-defaults/1.0/"
    xmlns:crs="http://ns.adobe.com/camera-raw-settings/1.0/"
   xmp:CreatorTool="NIKON D3400 Ver.1.12    "
   xmp:CreateDate="2021-04-07T14:21:18.82"
   xmp:Rating="0"
   xmp:ModifyDate="2021-04-07T14:21:18.82"
   xmp:MetadataDate="2021-04-07T12:23:13-07:00"
   tiff:Make="NIKON CORPORATION"
   tiff:Model="NIKON D3400"
   tiff:Orientation="1"
   exif:ExifVersion="0231"
   exif:ExposureTime="1/80"
   exif:ShutterSpeedValue="6321928/1000000"
   exif:FNumber="18/10"
   exif:ApertureValue="1695994/1000000"
   exif:ExposureProgram="1"
   exif:SensitivityType="2"
   exif:RecommendedExposureIndex="360"
   exif:ExposureBiasValue="0/6"
   exif:MaxApertureValue="16/10"
   exif:MeteringMode="5"
   exif:LightSource="0"
   exif:FocalLength="500/10"
   exif:SensingMethod="2"
   exif:FileSource="3"
   exif:SceneType="1"
   exif:FocalLengthIn35mmFilm="75"
   exif:CustomRendered="0"
   exif:ExposureMode="1"
   exif:WhiteBalance="0"
   exif:SceneCaptureType="0"
   exif:GainControl="0"
   exif:Contrast="0"
   exif:Saturation="0"
   exif:Sharpness="0"
   exif:SubjectDistanceRange="0"
   exif:FocalPlaneXResolution="84928060/32768"
   exif:FocalPlaneYResolution="84928060/32768"
   exif:FocalPlaneResolutionUnit="3"
   exif:DateTimeOriginal="2021-04-07T14:21:18.82"
   aux:SerialNumber="3810197"
   aux:LensInfo="500/10 500/10 18/10 18/10"
   aux:Lens="50.0 mm f/1.8"
   aux:LensID="159"
   aux:ImageNumber="14587"
   aux:ApproximateFocusDistance="4294967295/1"
   photoshop:DateCreated="2021-04-07T14:21:18.82"
   photoshop:SidecarForExtension="NEF"
   photoshop:EmbeddedXMPDigest="12877F91B06624FC018C0246CC2AD5D3"
   xmpMM:DocumentID="B50954FFFB1E87E6F9F2C7A4FE6A7FDA"
   xmpMM:OriginalDocumentID="B50954FFFB1E87E6F9F2C7A4FE6A7FDA"
   xmpMM:InstanceID="xmp.iid:3a701211-270d-8443-be92-7836b7dc5997"
   dc:format="image/x-nikon-nef"
   crd:CameraProfile="Camera STANDARD"
   crd:LookName=""
   crs:Version="13.2"
   crs:ProcessVersion="11.0"
   crs:WhiteBalance="As Shot"
   crs:Temperature="5850"
   crs:Tint="+71"
   crs:Exposure2012="0.00"
   crs:Contrast2012="0"
   crs:Highlights2012="0"
   crs:Shadows2012="0"
   crs:Whites2012="0"
   crs:Blacks2012="0"
   crs:Texture="0"
   crs:Clarity2012="0"
   crs:Dehaze="0"
   crs:Vibrance="0"
   crs:Saturation="0"
   crs:ParametricShadows="-70"
   crs:ParametricDarks="-37"
   crs:ParametricLights="-72"
   crs:ParametricHighlights="+76"
   crs:ParametricShadowSplit="25"
   crs:ParametricMidtoneSplit="50"
   crs:ParametricHighlightSplit="75"
   crs:Sharpness="146"
   crs:SharpenRadius="+1.0"
   crs:SharpenDetail="25"
   crs:SharpenEdgeMasking="0"
   crs:LuminanceSmoothing="81"
   crs:LuminanceNoiseReductionDetail="50"
   crs:LuminanceNoiseReductionContrast="0"
   crs:ColorNoiseReduction="25"
   crs:ColorNoiseReductionDetail="50"
   crs:ColorNoiseReductionSmoothness="50"
   crs:HueAdjustmentRed="0"
   crs:HueAdjustmentOrange="0"
   crs:HueAdjustmentYellow="0"
   crs:HueAdjustmentGreen="0"
   crs:HueAdjustmentAqua="0"
   crs:HueAdjustmentBlue="0"
   crs:HueAdjustmentPurple="0"
   crs:HueAdjustmentMagenta="0"
   crs:SaturationAdjustmentRed="0"
   crs:SaturationAdjustmentOrange="0"
   crs:SaturationAdjustmentYellow="0"
   crs:SaturationAdjustmentGreen="0"
   crs:SaturationAdjustmentAqua="0"
   crs:SaturationAdjustmentBlue="0"
   crs:SaturationAdjustmentPurple="0"
   crs:SaturationAdjustmentMagenta="0"
   crs:LuminanceAdjustmentRed="0"
   crs:LuminanceAdjustmentOrange="0"
   crs:LuminanceAdjustmentYellow="0"
   crs:LuminanceAdjustmentGreen="0"
   crs:LuminanceAdjustmentAqua="0"
   crs:LuminanceAdjustmentBlue="0"
   crs:LuminanceAdjustmentPurple="0"
   crs:LuminanceAdjustmentMagenta="0"
   crs:SplitToningShadowHue="0"
   crs:SplitToningShadowSaturation="0"
   crs:SplitToningHighlightHue="0"
   crs:SplitToningHighlightSaturation="0"
   crs:SplitToningBalance="0"
   crs:ColorGradeMidtoneHue="0"
   crs:ColorGradeMidtoneSat="0"
   crs:ColorGradeShadowLum="-75"
   crs:ColorGradeMidtoneLum="+66"
   crs:ColorGradeHighlightLum="-100"
   crs:ColorGradeBlending="50"
   crs:ColorGradeGlobalHue="0"
   crs:ColorGradeGlobalSat="0"
   crs:ColorGradeGlobalLum="0"
   crs:AutoLateralCA="0"
   crs:LensProfileEnable="0"
   crs:LensManualDistortionAmount="0"
   crs:VignetteAmount="0"
   crs:DefringePurpleAmount="0"
   crs:DefringePurpleHueLo="30"
   crs:DefringePurpleHueHi="70"
   crs:DefringeGreenAmount="0"
   crs:DefringeGreenHueLo="40"
   crs:DefringeGreenHueHi="60"
   crs:PerspectiveUpright="0"
   crs:PerspectiveVertical="0"
   crs:PerspectiveHorizontal="0"
   crs:PerspectiveRotate="0.0"
   crs:PerspectiveAspect="0"
   crs:PerspectiveScale="100"
   crs:PerspectiveX="0.00"
   crs:PerspectiveY="0.00"
   crs:GrainAmount="73"
   crs:GrainSize="25"
   crs:GrainFrequency="50"
   crs:PostCropVignetteAmount="-20"
   crs:PostCropVignetteMidpoint="50"
   crs:PostCropVignetteFeather="50"
   crs:PostCropVignetteRoundness="0"
   crs:PostCropVignetteStyle="1"
   crs:PostCropVignetteHighlightContrast="0"
   crs:ShadowTint="0"
   crs:RedHue="0"
   crs:RedSaturation="+79"
   crs:GreenHue="0"
   crs:GreenSaturation="-74"
   crs:BlueHue="0"
   crs:BlueSaturation="+24"
   crs:OverrideLookVignette="False"
   crs:ToneCurveName2012="Linear"
   crs:CameraProfile="Adobe Standard"
   crs:CameraProfileDigest="9B7500593B80F53EC60CBB8FACBCF944"
   crs:GrainSeed="3562681991"
   crs:HasSettings="True"
   crs:HasCrop="False"
   crs:AlreadyApplied="False">
   <exif:ISOSpeedRatings>
    <rdf:Seq>
     <rdf:li>360</rdf:li>
    </rdf:Seq>
   </exif:ISOSpeedRatings>
   <exif:Flash
    exif:Fired="False"
    exif:Return="0"
    exif:Mode="2"
    exif:Function="False"
    exif:RedEyeMode="False"/>
   <xmpMM:History>
    <rdf:Seq>
     <rdf:li
      stEvt:action="saved"
      stEvt:instanceID="xmp.iid:3a701211-270d-8443-be92-7836b7dc5997"
      stEvt:when="2021-04-07T12:23:13-07:00"
      stEvt:softwareAgent="Adobe Photoshop Camera Raw 13.2 (Windows)"
      stEvt:changed="/metadata"/>
    </rdf:Seq>
   </xmpMM:History>
   <crs:ToneCurvePV2012>
    <rdf:Seq>
     <rdf:li>0, 0</rdf:li>
     <rdf:li>255, 255</rdf:li>
    </rdf:Seq>
   </crs:ToneCurvePV2012>
   <crs:ToneCurvePV2012Red>
    <rdf:Seq>
     <rdf:li>0, 0</rdf:li>
     <rdf:li>255, 255</rdf:li>
    </rdf:Seq>
   </crs:ToneCurvePV2012Red>
   <crs:ToneCurvePV2012Green>
    <rdf:Seq>
     <rdf:li>0, 0</rdf:li>
     <rdf:li>255, 255</rdf:li>
    </rdf:Seq>
   </crs:ToneCurvePV2012Green>
   <crs:ToneCurvePV2012Blue>
    <rdf:Seq>
     <rdf:li>0, 0</rdf:li>
     <rdf:li>255, 255</rdf:li>
    </rdf:Seq>
   </crs:ToneCurvePV2012Blue>
   <crs:Look>
    <rdf:Description
     crs:Name="Adobe Color"
     crs:Amount="1.000000"
     crs:UUID="B952C231111CD8E0ECCF14B86BAA7077"
     crs:SupportsAmount="false"
     crs:SupportsMonochrome="false"
     crs:SupportsOutputReferred="false"
     crs:Copyright="© 2018 Adobe Systems, Inc.">
    <crs:Group>
     <rdf:Alt>
      <rdf:li xml:lang="x-default">Profiles</rdf:li>
     </rdf:Alt>
    </crs:Group>
    <crs:Parameters>
     <rdf:Description
      crs:Version="13.2"
      crs:ProcessVersion="11.0"
      crs:ConvertToGrayscale="False"
      crs:CameraProfile="Adobe Standard"
      crs:LookTable="E1095149FDB39D7A057BAB208837E2E1">
     <crs:ToneCurvePV2012>
      <rdf:Seq>
       <rdf:li>0, 0</rdf:li>
       <rdf:li>22, 16</rdf:li>
       <rdf:li>40, 35</rdf:li>
       <rdf:li>127, 127</rdf:li>
       <rdf:li>224, 230</rdf:li>
       <rdf:li>240, 246</rdf:li>
       <rdf:li>255, 255</rdf:li>
      </rdf:Seq>
     </crs:ToneCurvePV2012>
     <crs:ToneCurvePV2012Red>
      <rdf:Seq>
       <rdf:li>0, 0</rdf:li>
       <rdf:li>255, 255</rdf:li>
      </rdf:Seq>
     </crs:ToneCurvePV2012Red>
     <crs:ToneCurvePV2012Green>
      <rdf:Seq>
       <rdf:li>0, 0</rdf:li>
       <rdf:li>255, 255</rdf:li>
      </rdf:Seq>
     </crs:ToneCurvePV2012Green>
     <crs:ToneCurvePV2012Blue>
      <rdf:Seq>
       <rdf:li>0, 0</rdf:li>
       <rdf:li>255, 255</rdf:li>
      </rdf:Seq>
     </crs:ToneCurvePV2012Blue>
     </rdf:Description>
    </crs:Parameters>
    </rdf:Description>
   </crs:Look>
  </rdf:Description>
 </rdf:RDF>
</x:xmpmeta>
